X:166
T:Damme
C:Henry Playford, 1698
N:Republished by Walsh in 1718 as "Dampier" with slight differences in the tune.
L:1/8
M:4/4
S:Colin Hume's website,  colinhume.com  - chords can also be printed below the stave.
Q:1/4=135
K:D
P:A
|: "D"d2 "A/E"c2 "D/F#"d2 "G"c>B | "A"A>GF>G "D"A2G>F | "Em"E>FG>A "G"B>c dA/G/ | "D"Fd "A7"Ec "D"d2D2 :|
P:B
|: "D"d>ef>e "D/C#"d>ef>e | "D/B"d>ef>g "A"e2A2 | "D"d>ef>e "D/C#"d>ef>e | "D/B"d>ef>g "A"a3b |
"D"a>gf>e "Bm"d>cB>f | "Em"g2B>f "/"g3f | "A"g>fe>d "/"c>B AG/F/ | "G"G>d "A7"F>c "D"d2D2 :|

